storage/app/icons/phosphoricons/regular/mastodon-logo.svg

<svg xmlns="http://www.w3.org/2000/svg" fill="currentColor" viewBox="0 0 256 256"><path d="M184 32H72a40 40 0 0 0-40 40v120a40 40 0 0 0 40 40h88a8 8 0 0 0 0-16H72a24 24 0 0 1-24-24v-8h136a40 40 0 0 0 40-40V72a40 40 0 0 0-40-40m24 112a24 24 0 0 1-24 24H48V72a24 24 0 0 1 24-24h112a24 24 0 0 1 24 24Zm-24-40v32a8 8 0 0 1-16 0v-32a16 16 0 0 0-32 0v32a8 8 0 0 1-16 0v-32a16 16 0 0 0-32 0v32a8 8 0 0 1-16 0v-32a32 32 0 0 1 56-21.13A32 32 0 0 1 184 104"/></svg>

<svg xmlns="http://www.w3.org/2000/svg" viewBox="0 0 256 256" fill="currentColor"><path d="M184,32H72A40,40,0,0,0,32,72V192a40,40,0,0,0,40,40h88a8,8,0,0,0,0-16H72a24,24,0,0,1-24-24v-8H184a40,40,0,0,0,40-40V72A40,40,0,0,0,184,32Zm24,112a24,24,0,0,1-24,24H48V72A24,24,0,0,1,72,48H184a24,24,0,0,1,24,24Zm-24-40v32a8,8,0,0,1-16,0V104a16,16,0,0,0-32,0v32a8,8,0,0,1-16,0V104a16,16,0,0,0-32,0v32a8,8,0,0,1-16,0V104a32,32,0,0,1,56-21.13A32,32,0,0,1,184,104Z"/></svg>
